ui/assets/starred.svg

<svg xmlns="http://www.w3.org/2000/svg" viewBox="0 0 18 18"><path fill-rule="evenodd" clip-rule="evenodd" d="M3 3.25C3 2.83579 3.33579 2.5 3.75 2.5H11.25C12.2162 2.5 13 3.28379 13 4.25V9.25C13 9.66421 12.6642 10 12.25 10H3.75C3.33579 10 3 9.66421 3 9.25V3.25Z" fill="#FFFFFF" fill-opacity="0.4" data-color="color-2"></path> <path d="M9 10V10.75C9 11.7162 9.78379 12.5 10.75 12.5H14.25C15.2162 12.5 16 11.7162 16 10.75V6.75C16 5.78379 15.2162 5 14.25 5H13V9.25C13 9.66421 12.6642 10 12.25 10H9Z" fill="#FFFFFF" fill-opacity="0.2" data-color="color-2"></path> <path fill-rule="evenodd" clip-rule="evenodd" d="M3.75 1C4.16421 1 4.5 1.33579 4.5 1.75V16.25C4.5 16.6642 4.16421 17 3.75 17C3.33579 17 3 16.6642 3 16.25V1.75C3 1.33579 3.33579 1 3.75 1Z" fill="#FFFFFF"></path></svg>

<svg xmlns="http://www.w3.org/2000/svg" viewBox="0 0 18 18"><path d="M14.25,5h-1.25v-.75c0-.965-.785-1.75-1.75-1.75H4v7.5h7.146c.223,0,.334,.27,.177,.427l-1.673,1.673c.302,.246,.681,.4,1.1,.4h3.5c.965,0,1.75-.785,1.75-1.75V6.75c0-.965-.785-1.75-1.75-1.75Z" fill="#FFFFFF"></path><path d="M3.75,17c-.414,0-.75-.336-.75-.75V1.75c0-.414,.336-.75,.75-.75s.75,.336,.75,.75v14.5c0,.414-.336,.75-.75,.75Z" fill="#FFFFFF" data-color="color-2"></path></svg>
